src/assets/svgs/footer-logo.svg

<svg width="100" height="100" viewBox="0 0 100 100" fill="none" xmlns="http://www.w3.org/2000/svg">
<rect x="2" y="2" width="96" height="96" stroke="white" stroke-width="4"/>
<path d="M38.116 31.292C37.892 31.4787 37.472 31.7307 36.856 32.048C36.2587 32.3653 35.5213 32.6453 34.644 32.888C33.7667 33.1307 32.796 33.2427 31.732 33.224C30.108 33.1867 28.652 32.8973 27.364 32.356C26.0947 31.796 25.012 31.04 24.116 30.088C23.2387 29.136 22.5667 28.044 22.1 26.812C21.6333 25.58 21.4 24.264 21.4 22.864C21.4 21.296 21.6333 19.8587 22.1 18.552C22.5853 17.2453 23.2667 16.116 24.144 15.164C25.04 14.212 26.104 13.4747 27.336 12.952C28.568 12.4293 29.9307 12.168 31.424 12.168C32.8053 12.168 34.028 12.3547 35.092 12.728C36.156 13.1013 37.024 13.5027 37.696 13.932L36.1 17.768C35.6333 17.4133 35.008 17.0493 34.224 16.676C33.4587 16.284 32.572 16.088 31.564 16.088C30.78 16.088 30.024 16.256 29.296 16.592C28.5867 16.9093 27.952 17.3667 27.392 17.964C26.8507 18.5613 26.4213 19.2613 26.104 20.064C25.7867 20.848 25.628 21.7067 25.628 22.64C25.628 23.6293 25.768 24.5347 26.048 25.356C26.3467 26.1773 26.7667 26.8867 27.308 27.484C27.8493 28.0627 28.4933 28.5107 29.24 28.828C30.0053 29.1453 30.864 29.304 31.816 29.304C32.9173 29.304 33.86 29.1267 34.644 28.772C35.428 28.4173 36.0253 28.044 36.436 27.652L38.116 31.292ZM40.9234 22.724C40.9234 21.3053 41.1941 19.9613 41.7354 18.692C42.2768 17.4227 43.0234 16.3027 43.9754 15.332C44.9461 14.3427 46.0661 13.568 47.3354 13.008C48.6048 12.448 49.9674 12.168 51.4234 12.168C52.8608 12.168 54.2141 12.448 55.4834 13.008C56.7528 13.568 57.8728 14.3427 58.8434 15.332C59.8328 16.3027 60.5981 17.4227 61.1394 18.692C61.6994 19.9613 61.9794 21.3053 61.9794 22.724C61.9794 24.18 61.6994 25.5427 61.1394 26.812C60.5981 28.0813 59.8328 29.2013 58.8434 30.172C57.8728 31.124 56.7528 31.8707 55.4834 32.412C54.2141 32.9533 52.8608 33.224 51.4234 33.224C49.9674 33.224 48.6048 32.9533 47.3354 32.412C46.0661 31.8707 44.9461 31.124 43.9754 30.172C43.0234 29.2013 42.2768 28.0813 41.7354 26.812C41.1941 25.5427 40.9234 24.18 40.9234 22.724ZM45.1234 22.724C45.1234 23.6387 45.2821 24.4973 45.5994 25.3C45.9354 26.084 46.3928 26.784 46.9714 27.4C47.5688 27.9973 48.2501 28.464 49.0154 28.8C49.7994 29.136 50.6488 29.304 51.5634 29.304C52.4408 29.304 53.2528 29.136 53.9994 28.8C54.7648 28.464 55.4274 27.9973 55.9874 27.4C56.5474 26.784 56.9861 26.084 57.3034 25.3C57.6208 24.4973 57.7794 23.6387 57.7794 22.724C57.7794 21.7907 57.6114 20.9227 57.2754 20.12C56.9581 19.3173 56.5101 18.6173 55.9314 18.02C55.3714 17.404 54.7088 16.928 53.9434 16.592C53.1781 16.256 52.3474 16.088 51.4514 16.088C50.5554 16.088 49.7248 16.256 48.9594 16.592C48.1941 16.928 47.5221 17.404 46.9434 18.02C46.3648 18.6173 45.9168 19.3173 45.5994 20.12C45.2821 20.9227 45.1234 21.7907 45.1234 22.724ZM41.112 61.84L25.488 47.728L26.692 48.4L26.776 61H22.66V39.58H22.828L38.116 53.636L37.22 53.244L37.136 40.392H41.224V61.84H41.112ZM44.2071 61L53.5031 39.58H53.7271L63.0231 61H58.3191L52.3831 45.936L55.3231 43.92L48.2111 61H44.2071ZM50.5631 53.552H56.7511L58.1791 56.968H49.3031L50.5631 53.552ZM26.776 75.728L26.664 76.764L27.28 75.98L34 68.392H39.264L30.752 77.632L39.292 89H34.14L27.784 80.208L26.776 81.216V89H22.66V68.392H26.776V75.728ZM48.6188 68.392C49.9068 68.392 51.0548 68.56 52.0628 68.896C53.0708 69.2133 53.9108 69.68 54.5828 70.296C55.2735 70.8933 55.7962 71.6213 56.1508 72.48C56.5055 73.32 56.6828 74.272 56.6828 75.336C56.6828 76.176 56.5522 77.016 56.2908 77.856C56.0482 78.696 55.6375 79.4613 55.0588 80.152C54.4988 80.8427 53.7522 81.4027 52.8188 81.832C51.8855 82.2427 50.7282 82.448 49.3468 82.448H46.4348V89H42.3748V68.392H48.6188ZM49.3188 78.528C49.9348 78.528 50.4482 78.4253 50.8588 78.22C51.2695 78.0147 51.5868 77.7533 51.8108 77.436C52.0535 77.1187 52.2215 76.792 52.3148 76.456C52.4268 76.1013 52.4828 75.7747 52.4828 75.476C52.4828 75.252 52.4455 74.972 52.3708 74.636C52.3148 74.2813 52.1842 73.9267 51.9788 73.572C51.7735 73.2173 51.4562 72.9187 51.0268 72.676C50.6162 72.4333 50.0562 72.312 49.3468 72.312H46.4348V78.528H49.3188ZM53.1268 81.048L58.2228 89H53.4908L48.2828 81.16L53.1268 81.048ZM65.2502 82.588L57.6622 68.392H62.6742L67.9942 79.088L66.7902 79.172L72.0262 68.392H77.0382L69.3102 82.588V89H65.2502V82.588Z" fill="white"/>
<path d="M75.0528 86.984C75.0528 86.4053 75.2581 85.92 75.6688 85.528C76.0981 85.136 76.5648 84.94 77.0688 84.94C77.5355 84.94 77.9741 85.136 78.3848 85.528C78.8141 85.92 79.0288 86.4053 79.0288 86.984C79.0288 87.6 78.8141 88.0947 78.3848 88.468C77.9741 88.8227 77.5355 89 77.0688 89C76.5648 89 76.0981 88.8227 75.6688 88.468C75.2581 88.0947 75.0528 87.6 75.0528 86.984Z" fill="#FE6C02"/>
</svg>

<svg width="100" height="100" fill="none" xmlns="http://www.w3.org/2000/svg"><path stroke="#fff" stroke-width="4" d="M2 2h96v96H2z"/><path d="M38.116 31.292c-.224.187-.644.439-1.26.756-.597.317-1.335.597-2.212.84-.877.243-1.848.355-2.912.336-1.624-.037-3.08-.327-4.368-.868-1.27-.56-2.352-1.316-3.248-2.268a10.028 10.028 0 0 1-2.016-3.276 11.051 11.051 0 0 1-.7-3.948c0-1.568.233-3.005.7-4.312.485-1.307 1.167-2.436 2.044-3.388a9.339 9.339 0 0 1 3.192-2.212c1.232-.523 2.595-.784 4.088-.784 1.381 0 2.604.187 3.668.56 1.064.373 1.932.775 2.604 1.204L36.1 17.768c-.467-.355-1.092-.719-1.876-1.092-.765-.392-1.652-.588-2.66-.588-.784 0-1.54.168-2.268.504a5.896 5.896 0 0 0-1.904 1.372 6.835 6.835 0 0 0-1.288 2.1c-.317.784-.476 1.643-.476 2.576 0 .99.14 1.895.42 2.716.299.821.719 1.53 1.26 2.128a5.625 5.625 0 0 0 1.932 1.344c.765.317 1.624.476 2.576.476 1.101 0 2.044-.177 2.828-.532.784-.355 1.381-.728 1.792-1.12l1.68 3.64Zm2.807-8.568c0-1.419.271-2.763.812-4.032a10.81 10.81 0 0 1 5.6-5.684c1.27-.56 2.632-.84 4.088-.84 1.438 0 2.791.28 4.06.84 1.27.56 2.39 1.335 3.36 2.324.99.97 1.755 2.09 2.296 3.36.56 1.27.84 2.613.84 4.032 0 1.456-.28 2.819-.84 4.088a10.354 10.354 0 0 1-2.296 3.36c-.97.952-2.09 1.699-3.36 2.24a10.24 10.24 0 0 1-4.06.812c-1.456 0-2.818-.27-4.088-.812a10.809 10.809 0 0 1-3.36-2.24 10.81 10.81 0 0 1-2.24-3.36c-.54-1.27-.812-2.632-.812-4.088Zm4.2 0c0 .915.16 1.773.476 2.576a7.166 7.166 0 0 0 1.372 2.1 6.648 6.648 0 0 0 2.044 1.4 6.4 6.4 0 0 0 2.548.504c.878 0 1.69-.168 2.436-.504a6 6 0 0 0 1.988-1.4 6.998 6.998 0 0 0 1.316-2.1 6.941 6.941 0 0 0 .476-2.576c0-.933-.168-1.801-.504-2.604a6.324 6.324 0 0 0-1.344-2.1 5.816 5.816 0 0 0-1.988-1.428 6.13 6.13 0 0 0-2.492-.504 6.13 6.13 0 0 0-2.492.504 6.112 6.112 0 0 0-2.016 1.428 6.327 6.327 0 0 0-1.344 2.1 7.02 7.02 0 0 0-.476 2.604ZM41.112 61.84 25.488 47.728l1.204.672.084 12.6H22.66V39.58h.168l15.288 14.056-.896-.392-.084-12.852h4.088V61.84h-.112Zm3.095-.84 9.296-21.42h.224L63.023 61H58.32l-5.936-15.064 2.94-2.016L48.211 61h-4.004Zm6.356-7.448h6.188l1.428 3.416h-8.876l1.26-3.416ZM26.776 75.728l-.112 1.036.616-.784L34 68.392h5.264l-8.512 9.24L39.292 89H34.14l-6.356-8.792-1.008 1.008V89H22.66V68.392h4.116v7.336Zm21.843-7.336c1.288 0 2.436.168 3.444.504 1.008.317 1.848.784 2.52 1.4a5.743 5.743 0 0 1 1.568 2.184c.354.84.532 1.792.532 2.856 0 .84-.13 1.68-.392 2.52a6.24 6.24 0 0 1-1.232 2.296c-.56.69-1.307 1.25-2.24 1.68-.934.41-2.09.616-3.472.616h-2.912V89h-4.06V68.392h6.244Zm.7 10.136c.616 0 1.13-.103 1.54-.308.41-.205.728-.467.952-.784.242-.317.41-.644.504-.98.112-.355.168-.681.168-.98 0-.224-.037-.504-.112-.84a3.08 3.08 0 0 0-.392-1.064c-.206-.355-.523-.653-.952-.896-.41-.243-.97-.364-1.68-.364h-2.912v6.216h2.884Zm3.808 2.52L58.223 89H53.49l-5.208-7.84 4.844-.112Zm12.123 1.54-7.588-14.196h5.012l5.32 10.696-1.204.084 5.236-10.78h5.012L69.31 82.588V89h-4.06v-6.412Z" fill="#fff"/><path d="M75.053 86.984c0-.579.205-1.064.616-1.456.43-.392.896-.588 1.4-.588.466 0 .905.196 1.316.588.43.392.644.877.644 1.456 0 .616-.215 1.11-.644 1.484-.41.355-.85.532-1.316.532-.504 0-.97-.177-1.4-.532-.41-.373-.616-.868-.616-1.484Z" fill="#FE6C02"/></svg>
